build/static/img/icons/carazina.svg

<svg width="30" height="26" viewBox="0 0 30 26" fill="none" xmlns="http://www.w3.org/2000/svg">
<path d="M9.53103 17.3335H9.53239C9.53352 17.3335 9.53464 17.3333 9.53577 17.3333H25.2488C25.6356 17.3333 25.9757 17.0766 26.082 16.7047L29.5487 4.57142C29.6234 4.30984 29.571 4.02863 29.4074 3.81151C29.2436 3.59439 28.9874 3.46665 28.7154 3.46665H7.53229L6.91276 0.67866C6.82452 0.282117 6.47289 0 6.06664 0H0.866663C0.387967 0 0 0.387967 0 0.866663C0 1.34536 0.387967 1.73333 0.866663 1.73333H5.3715C5.48119 2.22737 8.33621 15.0752 8.50052 15.8143C7.57946 16.2147 6.9333 17.1331 6.9333 18.1999C6.9333 19.6335 8.09969 20.7999 9.53329 20.7999H25.2488C25.7275 20.7999 26.1154 20.4119 26.1154 19.9332C26.1154 19.4545 25.7275 19.0666 25.2488 19.0666H9.53329C9.0555 19.0666 8.66663 18.6777 8.66663 18.1999C8.66663 17.7228 9.05414 17.3346 9.53103 17.3335ZM27.5664 5.19998L24.5949 15.5999H10.2284L7.91733 5.19998H27.5664Z" fill="white"/>
<path d="M8.66797 23.4C8.66797 24.8336 9.83435 26 11.268 26C12.7016 26 13.8679 24.8336 13.8679 23.4C13.8679 21.9664 12.7016 20.8 11.268 20.8C9.83435 20.8 8.66797 21.9664 8.66797 23.4ZM11.268 22.5334C11.7457 22.5334 12.1346 22.9222 12.1346 23.4C12.1346 23.8778 11.7457 24.2667 11.268 24.2667C10.7902 24.2667 10.4013 23.8778 10.4013 23.4C10.4013 22.9222 10.7902 22.5334 11.268 22.5334Z" fill="white"/>
<path d="M20.9141 23.4C20.9141 24.8336 22.0804 26 23.5141 26C24.9477 26 26.114 24.8336 26.114 23.4C26.114 21.9664 24.9477 20.8 23.5141 20.8C22.0804 20.8 20.9141 21.9664 20.9141 23.4ZM23.5141 22.5334C23.9918 22.5334 24.3807 22.9222 24.3807 23.4C24.3807 23.8778 23.9918 24.2667 23.5141 24.2667C23.0363 24.2667 22.6474 23.8778 22.6474 23.4C22.6474 22.9222 23.0363 22.5334 23.5141 22.5334Z" fill="white"/>
</svg>

<svg width="30" height="26" fill="none" xmlns="http://www.w3.org/2000/svg"><path d="M9.531 17.334h15.718a.867.867 0 00.833-.63l3.467-12.133a.867.867 0 00-.834-1.104H7.532L6.912.679A.867.867 0 006.068 0h-5.2a.867.867 0 100 1.733h4.505L8.5 15.814A2.604 2.604 0 006.933 18.2c0 1.434 1.167 2.6 2.6 2.6H25.25a.867.867 0 100-1.733H9.533a.868.868 0 01-.002-1.733zM27.566 5.2l-2.971 10.4H10.228L7.918 5.2h19.648z" fill="#fff"/><path d="M8.668 23.4c0 1.434 1.166 2.6 2.6 2.6 1.434 0 2.6-1.166 2.6-2.6 0-1.434-1.166-2.6-2.6-2.6a2.603 2.603 0 00-2.6 2.6zm2.6-.867a.868.868 0 010 1.734.868.868 0 010-1.734zm9.646.867c0 1.434 1.166 2.6 2.6 2.6 1.434 0 2.6-1.166 2.6-2.6 0-1.434-1.166-2.6-2.6-2.6a2.603 2.603 0 00-2.6 2.6zm2.6-.867a.868.868 0 010 1.734.868.868 0 010-1.734z" fill="#fff"/></svg>
